build/img/icon-tree-leaf.svg

<svg width="10" height="18" viewBox="0 0 10 18" fill="none" xmlns="http://www.w3.org/2000/svg">
<path d="M10 9.56184C10 4.40092 5.5661 0.317377 5.37733 0.146153C5.16269 -0.0486795 4.83776 -0.0487559 4.62298 0.146153C4.4342 0.317453 9.20285e-09 4.40092 9.20285e-09 9.56184C9.20285e-09 10.8082 0.531272 12.0802 1.45759 13.052C2.28695 13.9221 3.32793 14.4563 4.43473 14.593V17.427C4.43473 17.7434 4.68781 18 5.00015 18C5.31249 18 5.56557 17.7434 5.56557 17.427V14.593C6.6723 14.4563 7.71313 13.922 8.54241 13.052C9.46873 12.0802 10 10.8081 10 9.56184ZM2.1134 5.51513L4.43473 7.86794V10.2624L1.46256 7.24983C1.63219 6.64279 1.8567 6.06165 2.1134 5.51513ZM5.56557 10.2632V7.86848L7.8869 5.51566C8.14368 6.06249 8.36819 6.64386 8.53782 7.2512L5.56557 10.2632ZM7.33218 4.45952C7.32321 4.46762 7.31394 4.47541 7.30534 4.4842L5.56557 6.24762V1.99706C6.08463 2.59822 6.74105 3.44348 7.33218 4.45952ZM4.43473 1.99699V6.24701L2.69549 4.4842C2.68659 4.47526 2.67732 4.46731 2.66804 4.45906C3.2594 3.4431 3.91567 2.59799 4.43473 1.99699ZM1.13085 9.56184C1.13085 9.23567 1.15294 8.91362 1.19154 8.59608L4.4348 11.8833V13.4365C2.50995 13.1228 1.13085 11.2515 1.13085 9.56184ZM5.56557 13.4364V11.8839L8.80854 8.59746C8.84714 8.91454 8.86923 9.23612 8.86923 9.56184C8.86915 11.2515 7.4902 13.1228 5.56557 13.4364Z" fill="white"/>
</svg>

<svg width="10" height="18" fill="none" xmlns="http://www.w3.org/2000/svg"><path d="M10 9.562C10 4.4 5.566.317 5.377.146a.56.56 0 00-.754 0C4.434.317 0 4.401 0 9.562c0 1.246.531 2.518 1.458 3.49.829.87 1.87 1.404 2.977 1.541v2.834A.57.57 0 005 18a.57.57 0 00.566-.573v-2.834c1.106-.137 2.147-.671 2.976-1.541C9.47 12.08 10 10.808 10 9.562zM2.113 5.515l2.322 2.353v2.394L1.463 7.25c.17-.607.394-1.188.65-1.735zm3.453 4.748V7.868l2.32-2.352c.258.546.482 1.128.652 1.735l-2.972 3.012zM7.332 4.46l-.027.024-1.74 1.764v-4.25c.52.6 1.176 1.445 1.767 2.462zM4.435 1.997v4.25l-1.74-1.763c-.008-.009-.018-.017-.027-.025a16.598 16.598 0 011.767-2.462zM1.13 9.562c0-.326.022-.648.06-.966l3.244 3.287v1.554C2.51 13.123 1.13 11.252 1.13 9.562zm4.435 3.874v-1.552l3.243-3.287c.038.318.06.64.06.965 0 1.69-1.379 3.56-3.303 3.874z" fill="#fff"/></svg>
